X:1
T:Cambria, 64.64.66.64
T:Cambria, 64.64.66.64
T:Welsh melody, Bistol Tune Book, 1876
T:Public Domain Courtesy of the Cyber Hymnal™
C:Welsh melody, Bistol Tune Book, 1876
Z:Public Domain
Z:Courtesy of the Cyber Hymnal™
%%score ( 1 2 ) 3
L:1/8
Q:1/4=110
M:3/4
K:E
V:1 treble 
V:2 treble 
V:3 bass 
V:1
 [B,E]2 [B,E]2 [EG]2 | [EG]3 [DF] [CE]2 | [CF]2 C2 [B,D]2 | [B,E]6 | [B,E]2 [B,E]2 [EG]2 | %5
 [EG]3 [DF] [DF]2 | G2 [FB]2 [E^A]2 | [DB]6 | [EG]2 [EG]2 [EG]2 | [EG]3 [DF] [DF]2 | %10
 [DF]2 [DF]2 [FA]2 | [FA]3 [EG] [EG]2 | [EB]2 [DB]2 [Ee]2 | [Ee]3 [Ec] [Ec]2 | B2 [EB]2 [DB]2 | %15
 E6 |] %16
V:2
 x6 | x6 | x2 C2 x2 | x6 | x6 | x6 | x6 | x6 | x6 | x6 | x6 | x6 | x6 | x6 | (DF) x4 | E6 |] %16
V:3
 [E,G,]2 [E,G,]2 [E,B,]2 | [B,,B,]3 [B,,A,] [C,G,]2 | [A,,A,]2 [A,,F,]2 [B,,F,]2 | [E,G,]6 | %4
 [E,G,]2 [E,G,]2 [E,B,]2 | [B,,B,]3 [B,,B,] [B,,B,]2 | [E,B,]2 [F,D]2 [F,,C]2 | [B,,B,]6 | %8
 [E,B,]2 [G,B,]2 [E,B,]2 | [B,,B,]3 [B,,B,] [B,,B,]2 | [B,,B,]2 [D,B,]2 [B,,B,]2 | %11
 [E,B,]3 [E,B,] [E,B,]2 | [E,G,]2 [F,A,]2 [G,B,]2 | [A,C]3 [A,,A,] [A,,A,]2 | %14
 [B,,A,]2 [B,,G,]2 [B,,F,]2 | [E,G,]6 |] %16

